svg/color/isa.svg

<?xml version="1.0" encoding="UTF-8" ?>
<!DOCTYPE svg PUBLIC "-//W3C//DTD SVG 1.1//EN" "http://www.w3.org/Graphics/SVG/1.1/DTD/svg11.dtd">
<svg width="250pt" height="250pt" viewBox="0 0 250 250" version="1.1" xmlns="http://www.w3.org/2000/svg">
<g id="#ffffffff">
<path fill="#ffffff" opacity="1.00" d=" M 0.00 0.00 L 250.00 0.00 L 250.00 250.00 L 0.00 250.00 L 0.00 0.00 M 119.34 10.17 C 88.78 11.39 59.05 25.85 38.91 48.83 C 24.14 65.29 14.59 86.17 11.19 107.98 C 8.35 128.06 10.48 148.92 18.15 167.74 C 29.05 195.42 51.22 218.46 78.48 230.37 C 97.07 238.72 117.91 241.89 138.16 239.56 C 158.12 237.27 177.49 229.70 193.62 217.69 C 214.85 201.98 230.65 178.80 236.78 153.04 C 246.27 117.13 236.37 77.00 211.75 49.28 C 189.04 23.09 154.00 8.04 119.34 10.17 Z" />
</g>
<g id="#0083ffff">
<path fill="#0083ff" opacity="1.00" d=" M 119.34 10.17 C 154.00 8.04 189.04 23.09 211.75 49.28 C 236.37 77.00 246.27 117.13 236.78 153.04 C 230.65 178.80 214.85 201.98 193.62 217.69 C 177.49 229.70 158.12 237.27 138.16 239.56 C 117.91 241.89 97.07 238.72 78.48 230.37 C 51.22 218.46 29.05 195.42 18.15 167.74 C 10.48 148.92 8.35 128.06 11.19 107.98 C 14.59 86.17 24.14 65.29 38.91 48.83 C 59.05 25.85 88.78 11.39 119.34 10.17 M 117.70 67.81 C 114.45 68.82 112.04 71.47 110.41 74.35 C 104.50 84.47 98.76 94.70 92.72 104.74 C 91.06 107.61 89.17 110.61 89.24 114.05 C 89.08 116.97 90.42 119.65 91.79 122.13 C 99.07 134.89 106.25 147.70 113.36 160.56 C 115.02 163.44 116.75 166.52 119.67 168.32 C 122.51 169.83 125.86 169.47 128.97 169.54 C 141.94 169.38 154.92 169.65 167.89 169.43 C 173.47 169.42 177.94 164.32 178.46 159.01 C 178.61 156.16 177.17 153.57 175.87 151.14 C 160.72 125.26 145.76 99.26 130.66 73.34 C 128.29 68.74 122.67 66.35 117.70 67.81 M 167.33 110.21 C 162.40 112.22 160.86 118.83 163.72 123.14 C 170.59 135.28 177.64 147.32 184.50 159.47 C 186.46 162.70 187.98 166.63 191.44 168.56 C 196.33 171.06 202.54 167.91 204.07 162.82 C 205.27 158.92 202.75 155.31 200.97 152.05 C 193.48 139.46 186.37 126.63 178.89 114.04 C 176.70 109.99 171.52 108.19 167.33 110.21 M 73.28 115.17 C 69.36 116.26 67.11 119.94 65.26 123.28 C 59.60 133.52 53.37 143.44 47.75 153.69 C 43.90 160.26 49.67 169.42 57.09 169.44 C 70.06 169.54 83.04 169.48 96.01 169.50 C 101.72 169.79 106.86 164.64 106.70 158.96 C 106.97 155.50 105.25 152.37 103.54 149.51 C 97.75 139.90 92.28 130.11 86.56 120.47 C 84.08 115.84 78.28 113.45 73.28 115.17 Z" />
</g>
<g id="#bde5ffff">
<path fill="#bde5ff" opacity="1.00" d=" M 117.70 67.81 C 122.67 66.35 128.29 68.74 130.66 73.34 C 145.76 99.26 160.72 125.26 175.87 151.14 C 177.17 153.57 178.61 156.16 178.46 159.01 C 177.94 164.32 173.47 169.42 167.89 169.43 C 154.92 169.65 141.94 169.38 128.97 169.54 C 125.86 169.47 122.51 169.83 119.67 168.32 C 116.75 166.52 115.02 163.44 113.36 160.56 C 106.25 147.70 99.07 134.89 91.79 122.13 C 90.42 119.65 89.08 116.97 89.24 114.05 C 89.17 110.61 91.06 107.61 92.72 104.74 C 98.76 94.70 104.50 84.47 110.41 74.35 C 112.04 71.47 114.45 68.82 117.70 67.81 Z" />
<path fill="#bde5ff" opacity="1.00" d=" M 167.33 110.21 C 171.52 108.19 176.70 109.99 178.89 114.04 C 186.37 126.63 193.48 139.46 200.97 152.05 C 202.75 155.31 205.27 158.92 204.07 162.82 C 202.54 167.91 196.33 171.06 191.44 168.56 C 187.98 166.63 186.46 162.70 184.50 159.47 C 177.64 147.32 170.59 135.28 163.72 123.14 C 160.86 118.83 162.40 112.22 167.33 110.21 Z" />
<path fill="#bde5ff" opacity="1.00" d=" M 73.28 115.17 C 78.28 113.45 84.08 115.84 86.56 120.47 C 92.28 130.11 97.75 139.90 103.54 149.51 C 105.25 152.37 106.97 155.50 106.70 158.96 C 106.86 164.64 101.72 169.79 96.01 169.50 C 83.04 169.48 70.06 169.54 57.09 169.44 C 49.67 169.42 43.90 160.26 47.75 153.69 C 53.37 143.44 59.60 133.52 65.26 123.28 C 67.11 119.94 69.36 116.26 73.28 115.17 Z" />
</g>
</svg>

<?xml version="1.0" encoding="utf-8"?>
<!-- Generator: Adobe Illustrator 26.0.3, SVG Export Plug-In . SVG Version: 6.00 Build 0)  -->
<svg version="1.1" id="Layer_1" xmlns="http://www.w3.org/2000/svg" xmlns:xlink="http://www.w3.org/1999/xlink" x="0px" y="0px"
	 viewBox="0 0 250 250" style="enable-background:new 0 0 250 250;" xml:space="preserve">
<style type="text/css">
	.st0{fill:#0083FF;}
	.st1{fill:#BDE5FF;}
</style>
<g id="_x23_0083ffff">
	<path class="st0" d="M119.3,10.2C154,8,189,23.1,211.8,49.3c24.6,27.7,34.5,67.8,25,103.8c-6.1,25.8-21.9,48.9-43.2,64.7
		c-16.1,12-35.5,19.6-55.5,21.9c-20.2,2.3-41.1-0.8-59.7-9.2c-27.3-11.9-49.4-34.9-60.3-62.6c-7.7-18.8-9.8-39.7-7-59.8
		c3.4-21.8,12.9-42.7,27.7-59.2C59,25.9,88.8,11.4,119.3,10.2 M117.7,67.8c-3.2,1-5.7,3.7-7.3,6.5c-5.9,10.1-11.7,20.3-17.7,30.4
		c-1.7,2.9-3.6,5.9-3.5,9.3c-0.2,2.9,1.2,5.6,2.6,8.1c7.3,12.8,14.5,25.6,21.6,38.4c1.7,2.9,3.4,6,6.3,7.8c2.8,1.5,6.2,1.1,9.3,1.2
		c13-0.2,25.9,0.1,38.9-0.1c5.6,0,10.1-5.1,10.6-10.4c0.1-2.8-1.3-5.4-2.6-7.9c-15.1-25.9-30.1-51.9-45.2-77.8
		C128.3,68.7,122.7,66.3,117.7,67.8 M167.3,110.2c-4.9,2-6.5,8.6-3.6,12.9c6.9,12.1,13.9,24.2,20.8,36.3c2,3.2,3.5,7.2,6.9,9.1
		c4.9,2.5,11.1-0.6,12.6-5.7c1.2-3.9-1.3-7.5-3.1-10.8c-7.5-12.6-14.6-25.4-22.1-38C176.7,110,171.5,108.2,167.3,110.2 M73.3,115.2
		c-3.9,1.1-6.2,4.8-8,8.1c-5.7,10.2-11.9,20.2-17.5,30.4c-3.8,6.6,1.9,15.7,9.3,15.8c13,0.1,26,0,38.9,0.1
		c5.7,0.3,10.8-4.9,10.7-10.5c0.3-3.5-1.4-6.6-3.2-9.5c-5.8-9.6-11.3-19.4-17-29C84.1,115.8,78.3,113.4,73.3,115.2z"/>
</g>
<g id="_x23_bde5ffff">
	<path class="st1" d="M117.7,67.8c5-1.5,10.6,0.9,13,5.5c15.1,25.9,30.1,51.9,45.2,77.8c1.3,2.4,2.7,5,2.6,7.9
		c-0.5,5.3-5,10.4-10.6,10.4c-13,0.2-25.9,0-38.9,0.1c-3.1-0.1-6.5,0.3-9.3-1.2c-2.9-1.8-4.7-4.9-6.3-7.8
		c-7.1-12.9-14.3-25.7-21.6-38.4c-1.4-2.5-2.7-5.2-2.6-8.1c-0.1-3.4,1.8-6.4,3.5-9.3c6-10,11.8-20.3,17.7-30.4
		C112,71.5,114.4,68.8,117.7,67.8z"/>
	<path class="st1" d="M167.3,110.2c4.2-2,9.4-0.2,11.6,3.8c7.5,12.6,14.6,25.4,22.1,38c1.8,3.3,4.3,6.9,3.1,10.8
		c-1.5,5.1-7.7,8.2-12.6,5.7c-3.5-1.9-5-5.9-6.9-9.1c-6.9-12.1-13.9-24.2-20.8-36.3C160.9,118.8,162.4,112.2,167.3,110.2z"/>
	<path class="st1" d="M73.3,115.2c5-1.7,10.8,0.7,13.3,5.3c5.7,9.6,11.2,19.4,17,29c1.7,2.9,3.4,6,3.2,9.5c0.2,5.7-5,10.8-10.7,10.5
		c-13,0-26,0-38.9-0.1c-7.4,0-13.2-9.2-9.3-15.8c5.6-10.2,11.8-20.2,17.5-30.4C67.1,119.9,69.4,116.3,73.3,115.2z"/>
</g>
</svg>
